X:1
T:Title
%%score { ( 1 4 ) | ( 2 3 ) }
L:1/8
M:4/4
K:C
V:1 treble nm="Grand Piano"
V:4 treble 
V:2 bass 
V:3 bass 
V:1
 z4 z2 z[Q:1/4=92] [EG] |[M:3/4] [EG][Ge] [Fd][Ec] [CE][DF] | [FA][EG]- [EG]3 [G,EG]/[G,EG]/ | %3
 [EG][B,D] [CE][DF] [EG][DF] |[M:5/8] [CE]-[CE]- [CE]3 |[M:1/8] [EG] | %6
[M:3/4] [EG][Ge] [Fd][Ec] [CE][DF] | [FA][EG]- [EG]3 [EG]/[EG]/ | [DG][GA] [GB]c B[CDA] | [B,DG]6 | %10
 G3 B AG | d6 | [EG][EA] [EB]c Bc | Bd- d3 G/G/ | [Ge][^F_e] [G=e] [Ec]2 [Gc]/[Gc]/ | %15
[M:7/8] [Ac][^GB][Ac] A3 A |[M:3/4] Gc- c/c/B AB |[M:5/8] [Fd][Ec]- [Ec]3 |] %18
V:2
 z4 z2 z [C,C] |[M:3/4] [C,C][C,C] [C,G,] [C,G,]2 [C,C] | [C,C][C,C]- [C,C]3 C,/C,/ | %3
 G,G, G,G,, G,,G,, |[M:5/8] C,-C,- C,3 |[M:1/8] [C,C] |[M:3/4] [C,C][C,C] [C,G,] [C,G,]2 [C,C] | %7
 [C,C][C,C]- [C,C]3 [C,G,]/[C,G,]/ | z2 z A, z2 | G,,6 | z2 z D z2 | [B,F]2 z2 z2 | %12
 [C,C][C,C] [C,C][K:treble][A,D^F] [A,DF][A,DF] | [G,DG][G,B,G]- [G,B,G]3[K:bass] G,/G,/ | %14
 [C,C]2 [C,C] [C,G,]2 [E,C]/[E,C]/ |[M:7/8] [F,C][F,C][F,C] [F,CF]3 [F,CF] |[M:3/4] z2 z D z2 | %17
[M:5/8] [C,G,][C,G,]- [C,G,]3 |] %18
V:3
 x8 |[M:3/4] x6 | x6 | x6 |[M:5/8] x5 |[M:1/8] x |[M:3/4] x6 | x6 | %8
 [D,B,][D,C] [D,D][D,E]- [D,DE]D, | x6 | [G,B,F]3 [G,F]- [G,CF][G,B,F] | %11
 G,2- [G,-B,] [G,B,]2 [G,B,F] | x3[K:treble] x3 | x5[K:bass] x | x6 |[M:7/8] x7 | %16
[M:3/4] [G,CE][G,E]- [G,E]/[G,E]/G,- [G,C][G,D] |[M:5/8] x5 |] %18
V:4
 x8 |[M:3/4] x6 | x6 | x6 |[M:5/8] x5 |[M:1/8] x |[M:3/4] x6 | x6 | x6 | x6 | x6 | z2 F F2 G | x6 | %13
 x6 | x6 |[M:7/8] x7 |[M:3/4] x6 |[M:5/8] x5 |] %18

